!!!OTL: Jmmer ein Freudchen.
!!!OTL-incipit:WINTER STREUT ZU FROHEM SPIEL
!!!COM: H. G. Naegeli
!!!ARE: Europa, Mitteleuropa, Deutschland
!!!SCT: F0293
!!!TXL: @@DE
!!!YEM: Copyright 1995, estate of Helmut Schaffrath.
**kern	**text
*ICvox	*
*clefG2	*
*M4/4	*
*met(c)	*
*k[f#]	*
*G:	*
=1	=1
!LO:TX:a:t=Ʒiemlich munter.	!
!LO:TX:a:t=P:only the highest voice encoded:problem	!
{8.g	1._Winter
16d	.
8g	ſtreut
8a	ʒu
16b/L	fro-
16ccJ	.
16b/L	-hem
16ccJ	.
8dd/	Spiel
8b/	uns
=2	=2
(8.a/L	Flok-
16bJ	.
16cc/L	.
16b	.
16cc	.
16ddJ)	.
4b/	-ken;
4r}	.
=3	=3
{8.gg	Lenʒ
16ff#	umflicht
8ee	.
8dd	mit
16ddL	Veil-
16ccJ	.
16ddL	-chen
16ccJ	.
8b/	uns
8g	die
=4	=4
(8.aL	Lok-
16bJ	.
16cc/L	.
16b	.
16cc	.
16ddJ)	.
4b/	-ken:
4r}	.
=5	=5
{8.d	Jmmer
16e	.
8f#	tiſcht
8g	im
16aL	Jah-
16bJ	.
16aL	-res-
16gJ	.
8a	-lauf
8r}	.
=6	=6
{8.g	uns
16a	Natur
8b/	.
8cc/	ein
16dd/L	Freudchen
16eeJ	.
16dd/L	.
16ccJ	.
8dd/	auf,
8r}	.
=7	=7
{16eeL	im-
16ddJ	.
16ee	-mer
16cc	ein
8dd	Freudchen,
8g	.
16eeL	im-
16ddJ	.
16ee	-mer
16cc	ein
8dd	Freudchen,
8g}	.
=8	=8
{8gg	tiſcht
16bL	Na-
16ccJ	.
8dd	-tur
16gL	ein
16aJ	.
8b/	Freudchen
8a	.
4g}	auf.
==	==
!!!AGN: Jugend - Lied, Jahreslauf, Belehrung
!!!ONB: ESAC (Essen Associative Code) Database: FINK
!!!AMT: simple quadruple
!!!AIN: vox
!!!EED: Helmut Schaffrath
!!!EEV: 1.0
!!!GTL: Jugendlieder
!!Text: M. T. Pfeiffer
!!!source: Musikalischer Hausschatz der Deutschen. Eine Sammlung von über 1000 Liedern und Gesängen mit Singstimmen und Klavierbegleitung. Leipzig, Litterarisches Verlags-Haus.
!!!page: 176
!!!URL-scan: https://www.digitale-sammlungen.de/en/view/bsb11144622?page=174,175
!!!ENC: Anna Maria Matuszewska
!!!EEV: 2024/07/30
*-	*-